X: 1
T: Careful With That Ale, Eugene
M: 6/8
L: 1/8
R: jig
K: Edor
BEB BAF|AFE ~E3|FEF DFA|dcA BAF|
BEB BAF|AFE EFG|~F3 DFA|dAF EFA:|
Bee edB|eBf edB|dcB ABc|dcA BAF|
B2e edB|eBf edB|dcB AdB|AFD E3:|
